chains/merlin/logo.svg

<svg xmlns="http://www.w3.org/2000/svg" width="512" height="512" fill="none"><rect width="510" height="510" x="1" y="1" fill="#fff" rx="255"/><path fill="#000" fill-rule="evenodd" d="M256 511c140.833 0 255-114.167 255-255S396.833 1 256 1 1 115.167 1 256c0 64.182 23.712 122.826 62.853 167.65l136.459-126.531a31.988 31.988 0 0 0 3.424-8.102l2.418-9.023-74.055-11.007c-8.682-1.29-8.682-13.812 0-15.102l66.143-9.831-76.563-103.297c-5.227-7.052 3.627-15.905 10.679-10.679l103.317 76.579 9.837-66.185c1.29-8.682 13.812-8.682 15.102 0l9.833 66.152 103.272-76.546c7.052-5.226 15.906 3.627 10.679 10.679l-76.558 103.29 66.187 9.838c8.682 1.29 8.682 13.812 0 15.102l-66.19 9.838 76.561 103.294c5.227 7.052-3.627 15.906-10.679 10.679l-103.273-76.546-9.832 66.148c-1.29 8.682-13.812 8.682-15.102 0l-11.011-74.083-10.497 2.812a17.771 17.771 0 0 0-4.014 1.622L91.982 451.259C136.32 488.542 193.537 511 256 511Z" clip-rule="evenodd"/><path fill="url(#a)" fill-rule="evenodd" d="M256 511c140.833 0 255-114.167 255-255S396.833 1 256 1 1 115.167 1 256c0 64.182 23.712 122.826 62.853 167.65l136.459-126.531a31.988 31.988 0 0 0 3.424-8.102l2.418-9.023-74.055-11.007c-8.682-1.29-8.682-13.812 0-15.102l66.143-9.831-76.563-103.297c-5.227-7.052 3.627-15.905 10.679-10.679l103.317 76.579 9.837-66.185c1.29-8.682 13.812-8.682 15.102 0l9.833 66.152 103.272-76.546c7.052-5.226 15.906 3.627 10.679 10.679l-76.558 103.29 66.187 9.838c8.682 1.29 8.682 13.812 0 15.102l-66.19 9.838 76.561 103.294c5.227 7.052-3.627 15.906-10.679 10.679l-103.273-76.546-9.832 66.148c-1.29 8.682-13.812 8.682-15.102 0l-11.011-74.083-10.497 2.812a17.771 17.771 0 0 0-4.014 1.622L91.982 451.259C136.32 488.542 193.537 511 256 511Z" clip-rule="evenodd"/><defs><linearGradient id="a" x1="-83.124" x2="608.321" y1="29.688" y2="402" gradientUnits="userSpaceOnUse"><stop stop-color="#2A2CBF"/><stop offset=".516" stop-color="#6335FF"/><stop offset="1" stop-color="#BD89FF"/></linearGradient></defs></svg>

<svg width="512" height="512" viewBox="0 0 512 512" fill="none" xmlns="http://www.w3.org/2000/svg">
<rect x="1" y="1" width="510" height="510" rx="255" fill="white"/>
<path fill-rule="evenodd" clip-rule="evenodd" d="M256 511C396.833 511 511 396.833 511 256C511 115.167 396.833 1 256 1C115.167 1 1 115.167 1 256C1 320.182 24.7119 378.826 63.8533 423.65L200.312 297.119C201.815 294.599 202.97 291.874 203.736 289.017L206.154 279.994L132.099 268.987C123.417 267.697 123.417 255.175 132.099 253.885L198.242 244.054L121.679 140.757C116.452 133.705 125.306 124.852 132.358 130.078L235.675 206.657L245.512 140.472C246.802 131.79 259.324 131.79 260.614 140.472L270.447 206.624L373.719 130.078C380.771 124.852 389.625 133.705 384.398 140.757L307.84 244.047L374.027 253.885C382.709 255.175 382.709 267.697 374.027 268.987L307.837 278.825L384.398 382.119C389.625 389.171 380.771 398.025 373.719 392.798L270.446 316.252L260.614 382.4C259.324 391.082 246.802 391.082 245.512 382.4L234.501 308.317L224.004 311.129C222.598 311.506 221.251 312.052 219.99 312.751L91.9822 451.259C136.32 488.542 193.537 511 256 511Z" fill="black"/>
<path fill-rule="evenodd" clip-rule="evenodd" d="M256 511C396.833 511 511 396.833 511 256C511 115.167 396.833 1 256 1C115.167 1 1 115.167 1 256C1 320.182 24.7119 378.826 63.8533 423.65L200.312 297.119C201.815 294.599 202.97 291.874 203.736 289.017L206.154 279.994L132.099 268.987C123.417 267.697 123.417 255.175 132.099 253.885L198.242 244.054L121.679 140.757C116.452 133.705 125.306 124.852 132.358 130.078L235.675 206.657L245.512 140.472C246.802 131.79 259.324 131.79 260.614 140.472L270.447 206.624L373.719 130.078C380.771 124.852 389.625 133.705 384.398 140.757L307.84 244.047L374.027 253.885C382.709 255.175 382.709 267.697 374.027 268.987L307.837 278.825L384.398 382.119C389.625 389.171 380.771 398.025 373.719 392.798L270.446 316.252L260.614 382.4C259.324 391.082 246.802 391.082 245.512 382.4L234.501 308.317L224.004 311.129C222.598 311.506 221.251 312.052 219.99 312.751L91.9822 451.259C136.32 488.542 193.537 511 256 511Z" fill="url(#paint0_linear_1145_11)"/>
<defs>
<linearGradient id="paint0_linear_1145_11" x1="-83.1237" y1="29.6875" x2="608.321" y2="402" gradientUnits="userSpaceOnUse">
<stop stop-color="#2A2CBF"/>
<stop offset="0.515625" stop-color="#6335FF"/>
<stop offset="1" stop-color="#BD89FF"/>
</linearGradient>
</defs>
</svg>
